icons/shopping-bag-2-line.svg

<svg viewBox="0 0 24 24" fill="currentColor" xmlns="http://www.w3.org/2000/svg">
    <path d="M20.0049 22H4.00488C3.4526 22 3.00488 21.5523 3.00488 21V3C3.00488 2.44772 3.4526 2 4.00488 2H20.0049C20.5572 2 21.0049 2.44772 21.0049 3V21C21.0049 21.5523 20.5572 22 20.0049 22ZM19.0049 20V4H5.00488V20H19.0049ZM9.00488 6V8C9.00488 9.65685 10.348 11 12.0049 11C13.6617 11 15.0049 9.65685 15.0049 8V6H17.0049V8C17.0049 10.7614 14.7663 13 12.0049 13C9.24346 13 7.00488 10.7614 7.00488 8V6H9.00488Z"/>
</svg>

<svg xmlns="http://www.w3.org/2000/svg" viewBox="0 0 24 24">
    <g>
        <path fill="none" d="M0 0h24v24H0z"/>
        <path d="M20 22H4a1 1 0 0 1-1-1V3a1 1 0 0 1 1-1h16a1 1 0 0 1 1 1v18a1 1 0 0 1-1 1zm-1-2V4H5v16h14zM9 6v2a3 3 0 0 0 6 0V6h2v2A5 5 0 0 1 7 8V6h2z"/>
    </g>
</svg>
